X: 01004
T: AUX BOIS DE NORWICH
T: (NORWICH WOODS)
C: Bob McQuillen 19 July 74
B: Bob's Note Book 1 #4
%R: gj
Z: 2019 John Chambers <jc:trillian.mit.edu>
M: 6/8
L: 1/8
K: G
Bc \
| d2B GBc | dge dBc | d2B GFG | A2B cBc |\
| d2B GBc | dge dBd | ege dBA | BGG G :|
|: Bd \
| e2B ABc | B2e efg | aba gfe | fef dBd |\
| e2B ABc | Bee edc | BAB dBd | e4 :|
%%text Norwich, Vt.
%%begintext align
%% Mill fois merci
%% \`a mon cher Qui Pi
%%endtext

%%sep 1 1 500

%%sep 1 1 500

